assets/img/main/transition/second.svg

<svg xmlns="http://www.w3.org/2000/svg" viewBox="0 0 1920 514.76">
  <path d="M1359.15,376.76A120.16,120.16,0,0,0,1367,346c-4.1-11-9.19-24.75-13.48-36.3-35.58-27.47-65.5-19.87-92.23,7.46H1233l-60.47-35.42c0-20.79,1.24-43-.29-65.07-2.29-33.13-22.74-57.25-52.07-64.55-27.88-6.94-47.19,3.35-67.79,35.71-1.41,2.22-4.76,3.2-7.21,4.76l-48.06,4.22-20,32H949.51c-11.2-18.05-19.18-41.12-48.56-40l-26.09,19.43L832.6,196.39C793,199.44,770.06,224.07,752,249.63L684.5,220.91c-39.08-41-39.08-41-51.09-99.12L599,96.1c-4.19-8.14-8.19-17.82-13.87-26.39S572.24,54,563.48,43.56l-61.57,3.89L449,.95C336.54-7.58,281,41.39,272.51,150.45l-48.13,51.34c-101.07,2.32-92.1,17.66-116,86.24L81.74,286,0,333V514.76H1920v-138Z"/>
</svg>

<?xml version="1.0" encoding="utf-8"?>
<svg viewBox="0 0.0020000000949949026 1367.030029296875 514.7579956054688" xmlns="http://www.w3.org/2000/svg">
  <path d="M 1364.95 378.21 C 1368.916 368.349 1365.755 356.555 1367 346 C 1362.9 335 1357.81 321.25 1353.52 309.7 C 1317.94 282.23 1288.02 289.83 1261.29 317.16 L 1233 317.16 L 1172.53 281.74 C 1172.53 260.95 1173.77 238.74 1172.24 216.67 C 1169.95 183.54 1149.5 159.42 1120.17 152.12 C 1092.29 145.18 1072.98 155.47 1052.38 187.83 C 1050.97 190.05 1047.62 191.03 1045.17 192.59 L 997.11 196.81 L 977.11 228.81 L 949.51 228.81 C 938.31 210.76 930.33 187.69 900.95 188.81 L 874.86 208.24 L 832.6 196.39 C 793 199.44 770.06 224.07 752 249.63 L 684.5 220.91 C 645.42 179.91 645.42 179.91 633.41 121.79 L 599 96.1 C 594.81 87.96 590.81 78.28 585.13 69.71 C 579.45 61.14 572.24 54 563.48 43.56 L 501.91 47.45 L 449 0.95 C 336.54 -7.58 281 41.39 272.51 150.45 L 224.38 201.79 C 123.31 204.11 132.28 219.45 108.38 288.03 L 81.74 286 L 0 333 L 0 514.76 L 1366.042 513.31 L 1366.042 444.917 C 1366.086 444.917 1368.468 378.21 1364.95 378.21 Z"/>
</svg>
